X:209
T: GIEB BLANKER BRUDER GIEB UNS WEIN
N: B0694
O: Europa, Mitteleuropa, Deutschland
R: Scherz - Lied
M: 2/4
L: 1/32
K: G
d2c2 | B4B2A2G4F2G2 | A4A2^G2A4
c2B2 | A4A2G2F3GA3B | G8z4
B2c2 | d4d2^c2d4d2c2 | d4^d4e4
c2B2 | A4A4A2B2c2d2 | B8z4
B4 | d4B4G4B2A2 | G8z4

@@@ Tune index: 2427
